server/public/images/edit-2-outline.svg

<svg width="24" height="24" viewBox="0 0 24 24" fill="none" xmlns="http://www.w3.org/2000/svg">
<path d="M19 20H5C4.73478 20 4.48043 20.1054 4.29289 20.2929C4.10536 20.4804 4 20.7348 4 21C4 21.2652 4.10536 21.5196 4.29289 21.7071C4.48043 21.8946 4.73478 22 5 22H19C19.2652 22 19.5196 21.8946 19.7071 21.7071C19.8946 21.5196 20 21.2652 20 21C20 20.7348 19.8946 20.4804 19.7071 20.2929C19.5196 20.1054 19.2652 20 19 20Z" fill="#FFC821"/>
<path d="M5 18H5.09L9.26 17.62C9.7168 17.5745 10.144 17.3732 10.47 17.05L19.47 8.05001C19.8193 7.68098 20.0081 7.18852 19.995 6.68055C19.9819 6.17257 19.7679 5.69052 19.4 5.34001L16.66 2.60001C16.3024 2.26411 15.8338 2.07137 15.3433 2.05846C14.8529 2.04556 14.3748 2.21338 14 2.53001L5 11.53C4.67677 11.856 4.4755 12.2832 4.43 12.74L4 16.91C3.98653 17.0565 4.00553 17.2041 4.05566 17.3424C4.10579 17.4807 4.1858 17.6062 4.29 17.71C4.38344 17.8027 4.49426 17.876 4.61609 17.9258C4.73793 17.9755 4.86839 18.0008 5 18ZM15.27 4.00001L18 6.73001L16 8.68001L13.32 6.00001L15.27 4.00001ZM6.37 12.91L12 7.32001L14.7 10.02L9.1 15.62L6.1 15.9L6.37 12.91Z" fill="#FFC821"/>
</svg>

<svg xmlns="http://www.w3.org/2000/svg" viewBox="0 0 24 24"><g data-name="Layer 2"><g data-name="edit-2"><rect width="24" height="24" opacity="0"/><path d="M19 20H5a1 1 0 0 0 0 2h14a1 1 0 0 0 0-2z"/><path d="M5 18h.09l4.17-.38a2 2 0 0 0 1.21-.57l9-9a1.92 1.92 0 0 0-.07-2.71L16.66 2.6A2 2 0 0 0 14 2.53l-9 9a2 2 0 0 0-.57 1.21L4 16.91a1 1 0 0 0 .29.8A1 1 0 0 0 5 18zM15.27 4L18 6.73l-2 1.95L13.32 6zm-8.9 8.91L12 7.32l2.7 2.7-5.6 5.6-3 .28z"/></g></g></svg>
